!!!OTL: 251. Volekh
!!!Genre:	Volekh
!!!Mode:	Minor
!!!Listening/dance:	dance
!!!:	*g:dor
!!!One_Mode:	no
**kern
*I"P1
*clefG2
*k[b-e-]
*g:
*M3/4
*>A
!LO:TX:a:i:t=G-minor
=1
8ffL
8gg
8gg
8ffJ
12aa-XL
12gg
12ffJ
=2
8ffL
8ee-
8ee-
8ddJ
4ff
=3
8b-L
(8qdd/
8cc)
8cc
8b-J
12ddL
12cc
12b-J
=4
(8b-L
8a)
(8a
8gJ)
4g
*>bM
*g:dor
=5:|!|:
*>B
4.dd
8cc#X
12ddL
12cc#
12b-J
=6
8ddL
8cc#X
8b-
8aJ
4b-
=7
8cc#XL
8dd
8een
8ffJ
12ddL
12cc#
12b-J
=8
8ddL
8cc#X
8b-
8aJ
4g
=:|!
*>eM
*-
